!!!COM: Corelli, Arcangelo
!!!OTL: 
!!!ONM: Opus 6, No. 9
!!!OMV: 3
!!!CDT: 1653/2/17/-1713/1/8/
!!!OCY: Italia
**kern	**kern	**kern	**kern	**kern	**kern	**kern
*clefC	*clefG	*clefG	*clefG	*clefC	*clefG	*clefG
*k[b-]	*k[b-]	*k[b-]	*k[b-]	*k[b-]	*k[b-]	*k[b-]
*F:	*F:	*F:	*F:	*F:	*F:	*F:
*M3/4	*M3/4	*M3/4	*M3/4	*M3/4	*M3/4	*M3/4
2r	2r	2r	2r	2r	2r	2r
8r	8r	8r	8r	8r	8r	8r
8F	8f	8a	8cc	8F	8a	8cc
=1	=1	=1	=1	=1	=1	=1
2.F	2.f	4.a	4.cc	2.F	4.a	4.cc
.	.	8g	8b-	.	8g	8b-
.	.	8f	8a	.	8f	8a
.	.	8g	8b-	.	8g	8b-
=2	=2	=2	=2	=2	=2	=2
4F	4f	4a	4cc	4F	4a	4cc
4A	4cc	4cc	4f	4A	4cc	4f
4AA	4a	4ff	4cc	4AA	4ff	4cc
=3	=3	=3	=3	=3	=3	=3
4BB-	4dd	4dd	4ff	4BB-	4dd	4ff
4GG	2b-	4.ee	4.gg	4GG	4.ee	4.gg
4C	.	.	.	4C	.	.
.	.	16dd	16ff	.	16dd	16ff
.	.	16ee	16gg	.	16ee	16gg
=4	=4	=4	=4	=4	=4	=4
2FF	2a	4ff	4aa	2FF	4ff	4aa
.	.	4a	4ff	.	4a	4ff
4F	4c	4f	4aa	4F	4f	4aa
=5	=5	=5	=5	=5	=5	=5
4E	4c	4cc	4.gg	4E	4cc	4.gg
4c	4e	4g	.	4c	4g	.
.	.	.	8cc	.	.	8cc
4E	4g	4cc	8dd	4E	4cc	8dd
.	.	.	8ee	.	.	8ee
=6	=6	=6	=6	=6	=6	=6
4D	4f	4cc	8ff	4D	4cc	8ff
.	.	.	8ee	.	.	8ee
4G	4.g	8b-	8ff	4G	8b-	8ff
.	.	8a	8aa	.	8a	8aa
4GG	.	4b-	8gg	4GG	4b-	8gg
.	8g	.	8ff	.	.	8ff
=7	=7	=7	=7	=7	=7	=7
2C	4g	4b-	4.ee	2C	4b-	4.ee
.	4c	4a	.	.	4a	.
.	.	.	8a	.	.	8a
4c	4r	4a	8b-	4c	4a	8b-
.	.	.	8cc	.	.	8cc
=8	=8	=8	=8	=8	=8	=8
4B-	4d	4a	4dd	4B-	4a	4dd
4BB-	4g	8g	4dd	4BB-	8g	4dd
.	.	8f	.	.	8f	.
4B-	4r	4g	4g	4B-	4g	4g
=9	=9	=9	=9	=9	=9	=9
4A	4c	4g	4.cc	4A	4g	4.cc
4AA	4f	4c	.	4AA	4c	.
.	.	.	8f	.	.	8f
4A	4r	[4f	8g	4A	[4f	8g
.	.	.	8a	.	.	8a
=10	=10	=10	=10	=10	=10	=10
4G	4B-	4f]	8b-	4G	4f]	8b-
.	.	.	8a	.	.	8a
4c	4.c	2e	8b-	4c	2e	8b-
.	.	.	8dd	.	.	8dd
4C	.	.	8cc	4C	.	8cc
.	8c	.	8b-	.	.	8b-
=11	=11	=11	=11	=11	=11	=11
2F	2c	2f	4.a	2F	2f	4.a
.	.	.	8g	.	.	8g
4F	4c	4f	8a	4F	4f	8a
.	.	.	8b	.	.	8b
=12	=12	=12	=12	=12	=12	=12
4E	2c	4g	4cc	4E	4g	4cc
4c	.	4e	4g	4c	4e	4g
4E	4g	4g	4cc	4E	4g	4cc
=13	=13	=13	=13	=13	=13	=13
4D	4f	4a	4ff	4D	4a	4ff
4G	4.g	2b	4dd	4G	2b	4dd
4GG	.	.	4gg	4GG	.	4gg
.	8g	.	.	.	.	.
=14	=14	=14	=14	=14	=14	=14
2C	4g	2cc	4ee	2C	2cc	4ee
.	4e	.	4cc	.	.	4cc
4c	4c	4ee	4aa	4c	4ee	4aa
=15	=15	=15	=15	=15	=15	=15
2B	4r	4dd	4r	2B	4dd	4r
.	4g	4gg	4dd	.	4gg	4dd
4e	4g	4g	4gg	4e	4g	4gg
=16	=16	=16	=16	=16	=16	=16
2B-	4a	4cc	4r	2B-	4cc	4r
.	4f	4ff	4cc	.	4ff	4cc
4d	4f	4a	4ff	4d	4a	4ff
=17	=17	=17	=17	=17	=17	=17
4B	2g	4.dd	4.ff	4B	4.dd	4.ff
4G	.	.	.	4G	.	.
.	.	8b	8gg	.	8b	8gg
4c	4g	[4cc	[4ee	4c	[4cc	[4ee
=18	=18	=18	=18	=18	=18	=18
4F	4a	8cc]	8ee]	4F	8cc]	8ee]
.	.	8dd	8dd	.	8dd	8dd
4G	4.d	2b	2dd	4G	2b	2dd
4GG	.	.	.	4GG	.	.
.	8g	.	.	.	.	.
=19	=19	=19	=19	=19	=19	=19
2.C	2.e	4cc	4cc	2.C	4cc	4cc
.	.	4g	4e	.	4g	4e
.	.	4e	4g	.	4e	4g
=20	=20	=20	=20	=20	=20	=20
4c	4e	[2.c	[2.cc	4c	[2.c	[2.cc
4E	4cc	.	.	4E	.	.
4G	4g	.	.	4G	.	.
=21	=21	=21	=21	=21	=21	=21
2C	2e	2c]	2cc]	2C	2c]	2cc]
8r	8r	8r	8r	8r	8r	8r
8C	8cc	8ee	8gg	8C	8ee	8gg
=22	=22	=22	=22	=22	=22	=22
2C	2cc	4.ee	4.gg	2C	4.ee	4.gg
.	.	8dd	8ff	.	8dd	8ff
4r	4r	8cc	8ee	4r	8cc	8ee
.	.	8dd	8ff	.	8dd	8ff
=23	=23	=23	=23	=23	=23	=23
2c	2cc	2ee	4gg	2c	2ee	4gg
.	.	.	4cc	.	.	4cc
4r	4r	4r	4ee	4r	4r	4ee
=24	=24	=24	=24	=24	=24	=24
2c#	2a	2ee	4.aa	2c#	2ee	4.aa
.	.	.	8gg	.	.	8gg
4r	4a	4ee	8ff	4r	4ee	8ff
.	.	.	8ee	.	.	8ee
=25	=25	=25	=25	=25	=25	=25
2d	2a	2a	4ff	2d	2a	4ff
.	.	.	4dd	.	.	4dd
4r	4r	4r	4ff	4r	4r	4ff
=26	=26	=26	=26	=26	=26	=26
4.G	2g	2dd	4.bb-	4.G	2dd	4.bb-
8A	.	.	8aa	8A	.	8aa
4B-	4g	4dd	8gg	4B-	4dd	8gg
.	.	.	8bb-	.	.	8bb-
=27	=27	=27	=27	=27	=27	=27
4C#	2g	4.ee	4.aa	4C#	4.ee	4.aa
4AA	.	.	.	4AA	.	.
.	.	8cc#	8gg	.	8cc#	8gg
4D	4a	[4dd	[4ff	4D	[4dd	[4ff
=28	=28	=28	=28	=28	=28	=28
4GG	4b-	8dd]	8ff]	4GG	8dd]	8ff]
.	.	8ee	8ee	.	8ee	8ee
2AA	4.e	2cc#	2ee	2AA	2cc#	2ee
.	8a	.	.	.	.	.
=29	=29	=29	=29	=29	=29	=29
4D	2.a	2.dd	2.dd	4D	2.dd	2.dd
4d	.	.	.	4d	.	.
4c	.	.	.	4c	.	.
=30	=30	=30	=30	=30	=30	=30
4B	2g	2dd	4.gg	4B	2dd	4.gg
4G	.	.	.	4G	.	.
.	.	.	8aa	.	.	8aa
4B	4g	4dd	8ff	4B	4dd	8ff
.	.	.	8gg	.	.	8gg
=31	=31	=31	=31	=31	=31	=31
4C	2g	2.g	2.ee	4C	2.g	2.ee
4c	.	.	.	4c	.	.
4B-	4r	.	.	4B-	.	.
=32	=32	=32	=32	=32	=32	=32
4A	2f	2cc	4.ff	4A	2cc	4.ff
4F	.	.	.	4F	.	.
.	.	.	8gg	.	.	8gg
4A	4f	4cc	8ee	4A	4cc	8ee
.	.	.	8ff	.	.	8ff
=33	=33	=33	=33	=33	=33	=33
4B-	2f	2.f	2.dd	4B-	2.f	2.dd
4c	.	.	.	4c	.	.
4d	4r	.	.	4d	.	.
=34	=34	=34	=34	=34	=34	=34
4E	2c	2gg	4.cc	4E	2gg	4.cc
4C	.	.	.	4C	.	.
.	.	.	8dd	.	.	8dd
4E	4c	4gg	8b-	4E	4gg	8b-
.	.	.	8cc	.	.	8cc
=35	=35	=35	=35	=35	=35	=35
4F	2c	2cc	4a	4F	2cc	4a
4AA	.	.	4cc	4AA	.	4cc
4FF	4r	4a	4ff	4FF	4a	4ff
=36	=36	=36	=36	=36	=36	=36
2BB-	4f	2dd	4r	2BB-	2dd	4r
.	4b-	.	4dd	.	.	4dd
4GG	4r	4dd	4gg	4GG	4dd	4gg
=37	=37	=37	=37	=37	=37	=37
2C	4g	2ee	4r	2C	2ee	4r
.	4cc	.	4ee	.	.	4ee
4AA	4r	4cc	4aa	4AA	4cc	4aa
=38	=38	=38	=38	=38	=38	=38
2D	4a	2ff	4r	2D	2ff	4r
.	4dd	.	4ff	.	.	4ff
4G	4r	4dd	4bb-	4G	4dd	4bb-
=39	=39	=39	=39	=39	=39	=39
4E	2cc	4gg	4.bb-	4E	4gg	4.bb-
4C	.	4ee	.	4C	4ee	.
.	.	.	8ccc	.	.	8ccc
4F	4c	[4ff	[4aa	4F	[4ff	[4aa
=40	=40	=40	=40	=40	=40	=40
4BB-	4d	8ff]	8aa]	4BB-	8ff]	8aa]
.	.	8gg	8gg	.	8gg	8gg
2C	4.G	2ee	2gg	2C	2ee	2gg
.	8c	.	.	.	.	.
=41	=41	=41	=41	=41	=41	=41
2F	2A	2ff	2ff	2F	2ff	2ff
4BB-	4d	4f	4dd	4BB-	4f	4dd
=42	=42	=42	=42	=42	=42	=42
2BB-	2c	4g	4e	2BB-	4g	4e
.	.	4e	4c	.	4e	4c
4AA	4c	4cc	[4f	4AA	4cc	[4f
=43	=43	=43	=43	=43	=43	=43
4BB-	4d	4f	8f]	4BB-	4f	8f]
.	.	.	8g	.	.	8g
2C	4.c	2e	2g	2C	2e	2g
.	8c	.	.	.	.	.
=44	=44	=44	=44	=44	=44	=44
2F	2A	4f	4f	2F	4f	4f
.	.	4c	4A	.	4c	4A
4r	4r	4A	4c	4r	4A	4c
=45	=45	=45	=45	=45	=45	=45
4F	4A	[2.f	[2.f	4F	[2.f	[2.f
4AA	4f	.	.	4AA	.	.
4C	4c	.	.	4C	.	.
=46	=46	=46	=46	=46	=46	=46
2FF	2A	2f]	2f]	2FF	2f]	2f]
4r	4r	4r	4r	4r	4r	4r
==	==	==	==	==	==	==
*-	*-	*-	*-	*-	*-	*-
!!!RWG: This file only contains pitch and duration data.
!!!RWG: Transposing instruments are not transposed.
!!!RWG: Durations of rests and tied notes may be interpreted.
!!!RWG: Key is interpreted using the Humdrum key tool.
!!!SCA: 
!!!YOR: Chrysander Edition
!!!AGN: concerto grosso
!!!AFT: stage1
!!!ENC: F. Bennion
!!!END: 1997/04/15
!!!AST: baroque
!!!YEC: Copyright 1994, Center for Computer Assisted Research in the Humanities
!!!YEM: Rights to all derivative electronic formats reserved.
!!!YEM: Refer to licensing agreement for further details.
!!!YEN: United States of America
!!!EED: W.B. Hewlett
!!!KEY: 3024728886
!!!EMD: Converted from MuseData to Humdrum Aug 9, 1999, by Bret Aarden using muse2kern.
!!!VTS: 2065125039
